icons/src/scalable/default/devices/video-joined-displays-symbolic.svg

<?xml version="1.0" encoding="UTF-8" standalone="no"?>
<svg
   xmlns:dc="http://purl.org/dc/elements/1.1/"
   xmlns:cc="http://creativecommons.org/ns#"
   xmlns:rdf="http://www.w3.org/1999/02/22-rdf-syntax-ns#"
   xmlns:svg="http://www.w3.org/2000/svg"
   xmlns="http://www.w3.org/2000/svg"
   xmlns:sodipodi="http://sodipodi.sourceforge.net/DTD/sodipodi-0.dtd"
   xmlns:inkscape="http://www.inkscape.org/namespaces/inkscape"
   viewBox="0 0 16 16"
   version="1.1"
   id="svg12"
   sodipodi:docname="video-joined-displays-symbolic.svg"
   inkscape:version="0.92.2 (5c3e80d, 2017-08-06)">
  <metadata
     id="metadata18">
    <rdf:RDF>
      <cc:Work
         rdf:about="">
        <dc:format>image/svg+xml</dc:format>
        <dc:type
           rdf:resource="http://purl.org/dc/dcmitype/StillImage" />
      </cc:Work>
    </rdf:RDF>
  </metadata>
  <defs
     id="defs16" />
  <sodipodi:namedview
     pagecolor="#ffffff"
     bordercolor="#666666"
     borderopacity="1"
     objecttolerance="10"
     gridtolerance="10"
     guidetolerance="10"
     inkscape:pageopacity="0"
     inkscape:pageshadow="2"
     inkscape:window-width="640"
     inkscape:window-height="480"
     id="namedview14"
     showgrid="false"
     inkscape:zoom="51.375"
     inkscape:cx="4.3017032"
     inkscape:cy="8"
     inkscape:current-layer="svg12" />
  <path
     id="path847"
     d="M 13.853268,10.976698 V 5.1433645 H 4.5199346 v 5.8333335 h 9.3333334 m 0,-7.0000002 a 1.1666667,1.1666667 0 0 1 1.166666,1.1666667 v 5.8333335 c 0,0.6475 -0.524999,1.166666 -1.166666,1.166666 h -3.5 v 1.166668 h 1.166667 v 1.166666 H 6.853268 v -1.166666 h 1.1666666 v -1.166668 h -3.5 c -0.6475,0 -1.1666666,-0.519166 -1.1666666,-1.166666 V 5.1433645 A 1.1666667,1.1666667 0 0 1 4.5199346,3.9766978 H 13.853268 M 2.1866014,2.8100312 V 9.810031 H 1.0199344 V 2.8100312 A 1.1666667,1.1666667 0 0 1 2.1866014,1.6433645 H 12.686601 v 1.1666667 z"
     inkscape:connector-curvature="0"
     style="stroke-width:0.58333331;fill:#bebebe;fill-opacity:1" />
</svg>

<svg version="1.1" viewBox="0 0 16 16" xmlns="http://www.w3.org/2000/svg">
 <path d="m13.853 10.977v-5.8333h-9.3333v5.8333h9.3333m0-7a1.1667 1.1667 0 0 1 1.1667 1.1667v5.8333c0 0.6475-0.525 1.1667-1.1667 1.1667h-3.5v1.1667h1.1667v1.1667h-4.6667v-1.1667h1.1667v-1.1667h-3.5c-0.6475 0-1.1667-0.51917-1.1667-1.1667v-5.8333a1.1667 1.1667 0 0 1 1.1667-1.1667h9.3333m-11.667-1.1667v7h-1.1667v-7a1.1667 1.1667 0 0 1 1.1667-1.1667h10.5v1.1667z" fill="#bebebe" stroke-width=".58333"/>
</svg>
